X:1

T:Barronstown Races, The

M:6/8

L:1/8

R:Jig

S:O’Neill – Dance Music of Ireland: 1001 Gems (1907), No. 248

Z:AK/Fiddler’s Companion

K:G

F|DGG GFG|BGc BAF|DFE FEF|A2d cAF|DGA GFG|BAG Bcd|fed cAF|AGG G2:|

|:d|dgg gfg|abg fed|cBc fef|abg fed|dgg gdc|BAG Bcd|fed cAF|AGG G2:|

|:F|DGA BAG|d/c/Bd cAG|FGA cAF|c/B/Ac BAF|GFG BAB|cBc dbg|fed cAF|AGG G2:|

|:d|gdg gbg|fdf f/g/af|ede e/f/ge|dBG Gac|BAB cBc|dcd eag|fed cAF|GGG G2:|

                       

BARROW BOATMAN'S SONG. Irish, Air (3/4 time). E Minor (G Major)/A Dorian. Standard tuning. One part. "Taken down by Mr. O'Leary while the man was rowing and singing" (Joyce). Joyce (Old Irish Folk Music and Songs), 1909; No. 286, pg. 136.

                       

BARROW CASTLE, THE. AKA and see "Lamont's Reel," "O'Connell in Clare," "Johnny Shooting in the Glen," "Jackson's Welcome to Cork [1]," "The Four Courts of Dublin," "The White‑haired Piper," "The Blea‑berry Blossom," "The Dandy Girl/Lass/Lasses," "Stormy Weather," "The Kerry Star," "The Green Fields to America," "The Connacht Lasses," "The Belles of Tipperary [2]," "Miss Mona(g)han(‘s Reel)."

           

BARROWBURN. AKA – “Barrow Burn Reel.” Scottish, Irish; Reel. D Major. Standard tuning. AABB. A modern composition by fiddler, bandleader and composer Addie Harper of Wick, Scotland. ‘Burn’ is a Scots word for stream. The tune is identified as a traditional Shetland reel on Sharon Shannon’s album, who was apparently unaware that it is a modern composition. Martin (Ceol na Fidhle, vol. 3), 1988; pg. 13. Miller (Fiddler’s Throne), 2004; No. 116, pg. 79. Taylor (Where’s the Crack?), 1989; pg. 14. CCF2, Cape Cod Fiddlers – “Concert Collection II” (1999). Culburnie Records CUL 121D, Alasdair Fraser & Natalie Haas – “Fire and Grace” (2004). Green Linnet GLCD 3107, Aly Bain & Phil Cunningham – “The Pearl” (1994). Green Linnet GLCD 3127, Sharon Shannon – “The Best of Sharon Shannon: Spellbound” (1999. Appears as first tune of “Bag of Cats” medley). Harp Records ERCD 017, Addie Harper – “Her Caithness Home” (2000). RC2000, George Wilson – “Royal Circus” (2000).

